ui/StatusQ/src/assets/img/icons/channel.svg

<svg fill="none" height="24" viewBox="0 0 24 24" width="24" xmlns="http://www.w3.org/2000/svg"><path clip-rule="evenodd" d="m10.7383 5.13185c.0728-.40777-.1987-.79735-.6065-.87017-.40772-.07281-.79731.19872-.87012.60648l-.53031 2.96974c-.04258.23846-.24998.41211-.49222.41211h-2.73915c-.41421 0-.75.33578-.75.75 0 .41421.33579.75.75.75h2.29273c.31131 0 .54694.28139.49221.58789l-.625 3.5c-.04258.2385-.24998.4121-.49221.4121h-2.66773c-.41421 0-.75.3358-.75.75s.33579.75.75.75h2.2213c.31131 0 .54694.2814.49221.5879l-.45183 2.5303c-.07282.4077.19871.7973.60648.8701.40776.0728.79735-.1987.87016-.6065l.53031-2.9697c.04258-.2385.24998-.4121.49221-.4121h3.96046c.3113 0 .5469.2814.4922.5879l-.4518 2.5303c-.0728.4077.1987.7973.6065.8701.4077.0728.7973-.1987.8701-.6065l.5303-2.9697c.0426-.2385.25-.4121.4922-.4121h2.7392c.4142 0 .75-.3358.75-.75s-.3358-.75-.75-.75h-2.2927c-.3113 0-.547-.2814-.4922-.5879l.625-3.5c.0425-.23845.2499-.41209.4922-.41209h2.6677c.4142 0 .75-.33579.75-.75 0-.41422-.3358-.75-.75-.75h-2.2213c-.3113 0-.5469-.28143-.4922-.5879l.4518-2.53026c.0728-.40777-.1987-.79735-.6065-.87017-.4077-.07281-.7973.19872-.8701.60648l-.5303 2.96974c-.0426.23846-.25.41211-.4922.41211h-3.9605c-.3113 0-.5469-.28143-.4922-.5879zm4.0466 5.20605c.0548-.3065-.1809-.58789-.4922-.58789h-3.9604c-.2423 0-.44966.17364-.49224.41209l-.625 3.5c-.05473.3065.1809.5879.49221.5879h3.96043c.2423 0 .4497-.1736.4922-.4121z" fill="#000" fill-rule="evenodd"/></svg>

<svg width="24" height="24" viewBox="0 0 24 24" fill="none" xmlns="http://www.w3.org/2000/svg">
<path fill-rule="evenodd" clip-rule="evenodd" d="M10.7383 5.13185C10.8111 4.72408 10.5396 4.3345 10.1318 4.26168C9.72408 4.18887 9.33449 4.4604 9.26168 4.86816L8.73137 7.8379C8.68879 8.07636 8.48139 8.25001 8.23915 8.25001H5.5C5.08579 8.25001 4.75 8.58579 4.75 9.00001C4.75 9.41422 5.08579 9.75001 5.5 9.75001H7.79273C8.10404 9.75001 8.33967 10.0314 8.28494 10.3379L7.65994 13.8379C7.61736 14.0764 7.40996 14.25 7.16773 14.25H4.5C4.08579 14.25 3.75 14.5858 3.75 15C3.75 15.4142 4.08579 15.75 4.5 15.75H6.7213C7.03261 15.75 7.26824 16.0314 7.21351 16.3379L6.76168 18.8682C6.68886 19.2759 6.96039 19.6655 7.36816 19.7383C7.77592 19.8111 8.16551 19.5396 8.23832 19.1318L8.76863 16.1621C8.81121 15.9236 9.01861 15.75 9.26084 15.75H13.2213C13.5326 15.75 13.7682 16.0314 13.7135 16.3379L13.2617 18.8682C13.1889 19.2759 13.4604 19.6655 13.8682 19.7383C14.2759 19.8111 14.6655 19.5396 14.7383 19.1318L15.2686 16.1621C15.3112 15.9236 15.5186 15.75 15.7608 15.75H18.5C18.9142 15.75 19.25 15.4142 19.25 15C19.25 14.5858 18.9142 14.25 18.5 14.25H16.2073C15.896 14.25 15.6603 13.9686 15.7151 13.6621L16.3401 10.1621C16.3826 9.92365 16.59 9.75001 16.8323 9.75001H19.5C19.9142 9.75001 20.25 9.41422 20.25 9.00001C20.25 8.58579 19.9142 8.25001 19.5 8.25001H17.2787C16.9674 8.25001 16.7318 7.96858 16.7865 7.66211L17.2383 5.13185C17.3111 4.72408 17.0396 4.3345 16.6318 4.26168C16.2241 4.18887 15.8345 4.4604 15.7617 4.86816L15.2314 7.8379C15.1888 8.07636 14.9814 8.25001 14.7392 8.25001H10.7787C10.4674 8.25001 10.2318 7.96858 10.2865 7.66211L10.7383 5.13185ZM14.7849 10.3379C14.8397 10.0314 14.604 9.75001 14.2927 9.75001H10.3323C10.09 9.75001 9.88264 9.92365 9.84006 10.1621L9.21506 13.6621C9.16033 13.9686 9.39596 14.25 9.70727 14.25H13.6677C13.91 14.25 14.1174 14.0764 14.1599 13.8379L14.7849 10.3379Z" fill="black"/>
</svg>
